svgs/ptv.svg

<svg width="192" height="192" viewBox="0 0 192 192" fill="none" xmlns="http://www.w3.org/2000/svg">
<path d="M23 136V115M42 78H30.2427C26.2427 78 23 81.2427 23 85.2427V115M23 115H42" stroke="black" stroke-width="14" stroke-linecap="round"/>
<path d="M42 115C51.3888 115 59 106.717 59 96.5C59 86.2827 51.3888 78 42 78" stroke="black" stroke-width="14"/>
<path d="M91.5541 136V78.7532M91.5541 78.7532H110.141M91.5541 78.7532H72.9669" stroke="black" stroke-width="14" stroke-linecap="round" stroke-linejoin="round"/>
<path d="M115 52L169 78.5L115 105" stroke="black" stroke-width="14" stroke-linecap="round" stroke-linejoin="round"/>
</svg>

<svg xmlns="http://www.w3.org/2000/svg" width="192" height="192" fill="none" stroke="#000" stroke-width="14" viewBox="0 0 192 192"><path stroke-linecap="round" d="M23 136v-21m19-37H30.243c-4 0-7.243 3.243-7.243 7.243V115m0 0h19"/><path d="M42 115c9.389 0 17-8.283 17-18.5S51.389 78 42 78"/><path stroke-linecap="round" stroke-linejoin="round" d="M91.554 136V78.753m0 0h18.587m-18.587 0H72.967M115 52l54 26.5-54 26.5"/></svg>
